packages/ffe-icons/icons/open/300/sm/format_h3.svg

<svg xmlns="http://www.w3.org/2000/svg" height="20" viewBox="0 -960 960 960" width="20"><path d="M190.198-298.001q-10.966 0-18.581-7.475-7.616-7.474-7.616-18.524v-312q0-11.05 7.419-18.524 7.418-7.475 18.384-7.475 10.966 0 18.581 7.475Q216-647.05 216-636v130.001h188.001V-636q0-10.75 7.419-18.375 7.418-7.624 18.384-7.624 10.966 0 18.581 7.475Q456-647.05 456-636v312q0 11.05-7.418 18.524-7.418 7.475-18.384 7.475-10.966 0-18.581-7.475-7.616-7.474-7.616-18.524v-130.001H216V-324q0 10.75-7.418 18.374-7.418 7.625-18.384 7.625Zm364.084 0q-11.032 0-18.657-7.418T528-323.803q0-10.966 7.475-18.581t18.524-7.615h177.692q5.385 0 8.847-3.462 3.462-3.462 3.462-8.847v-91.693H601.999q-11.049 0-18.524-7.418Q576-468.837 576-479.803q0-10.966 7.475-18.581t18.524-7.615H744v-91.693q0-5.385-3.462-8.847-3.462-3.462-8.847-3.462H553.999q-11.049 0-18.524-7.418Q528-624.837 528-635.803q0-10.966 7.487-18.581 7.488-7.615 18.556-7.615h177.912q26.563 0 45.303 18.89 18.741 18.89 18.741 45.417v235.384q0 26.527-18.867 45.417-18.866 18.89-45.36 18.89h-177.49Z"/></svg>

<svg xmlns="http://www.w3.org/2000/svg" height="20" viewBox="0 -960 960 960" width="20"><path d="M190.2-298q-10.97 0-18.58-7.48Q164-312.95 164-324v-312q0-11.05 7.42-18.52 7.42-7.48 18.38-7.48 10.97 0 18.58 7.48Q216-647.05 216-636v130h188v-130q0-10.75 7.42-18.37 7.42-7.63 18.38-7.63 10.97 0 18.58 7.48Q456-647.05 456-636v312q0 11.05-7.42 18.52-7.42 7.48-18.38 7.48-10.97 0-18.58-7.48Q404-312.95 404-324v-130H216v130q0 10.75-7.42 18.37-7.42 7.63-18.38 7.63Zm364.08 0q-11.03 0-18.66-7.42-7.62-7.42-7.62-18.38 0-10.97 7.47-18.58Q542.95-350 554-350h177.69q5.39 0 8.85-3.46t3.46-8.85V-454H602q-11.05 0-18.53-7.42-7.47-7.42-7.47-18.38 0-10.97 7.47-18.58Q590.95-506 602-506h142v-91.69q0-5.39-3.46-8.85t-8.85-3.46H554q-11.05 0-18.53-7.42-7.47-7.42-7.47-18.38 0-10.97 7.49-18.58 7.48-7.62 18.55-7.62h177.92q26.56 0 45.3 18.89T796-597.69v235.38q0 26.53-18.87 45.42Q758.27-298 731.77-298H554.28Z"/></svg>
